X:19
T:School for Lovers, The
M:6/8
L:1/8
B:Thompson's Compleat Collection of 200 Favourite Country Dances, vol. 3 (London, 1773)
Z:Transcribed and edited by Flynn Titford-Mock, 2007
Z:abc's:AK/Fiddler's Companion
K:G
G2d B2d | c2d A2c | B2d G2B | ABG FED | G2g e2g | f2a d2f | egf ed^c | d3 D3 :|
|: d2B d2B | c2A c2A | gdB cAG | FAG FED | d2B d2B | c2A c2A | gdB cAF | G3 G,3 :|
|: D2D C2B, | D2D C2B, | GAB ABc | BAG AFD | D2D C2B, | D2D C2B, | B,cB AGF | G3 G,3 :|

